priv/static/svgs/icons_new/sport-specials.svg

<svg width="32" height="32" viewBox="0 0 32 32" fill="none" xmlns="http://www.w3.org/2000/svg">
<path d="M15.5631 25.5834C15.333 25.7361 15.2703 26.0464 15.423 26.2765C15.5756 26.5066 15.886 26.5693 16.116 26.4166L15.5631 25.5834ZM19.5545 23.5348L19.5847 23.0357C19.4762 23.0292 19.3686 23.0581 19.278 23.1182L19.5545 23.5348ZM24 23.8043L23.9697 24.3034C24.1368 24.3135 24.2979 24.2394 24.3989 24.1058C24.4998 23.9723 24.5272 23.797 24.4719 23.639L24 23.8043ZM22.1214 16.928C22.0301 16.6673 21.7449 16.5301 21.4842 16.6213C21.2236 16.7126 21.0864 16.9979 21.1776 17.2585L22.1214 16.928ZM18.9554 23.6106C19.0449 23.8719 19.3293 24.011 19.5905 23.9215C19.8517 23.832 19.9909 23.5476 19.9014 23.2864L18.9554 23.6106ZM18.5561 19.3615C18.4666 19.1002 18.1823 18.961 17.921 19.0506C17.6598 19.1401 17.5206 19.4245 17.6102 19.6857L18.5561 19.3615ZM15.4791 26.4078C15.7092 26.5605 16.0195 26.4977 16.1721 26.2675C16.3248 26.0374 16.262 25.7271 16.0319 25.5745L15.4791 26.4078ZM12.4455 23.7955L12.7219 23.3788C12.6314 23.3188 12.5237 23.2898 12.4153 23.2964L12.4455 23.7955ZM8 24.065L7.52257 23.9164C7.47377 24.0733 7.50514 24.2442 7.6065 24.3734C7.70786 24.5027 7.86627 24.574 8.03025 24.5641L8 24.065ZM10.8527 16.578C10.9347 16.3143 10.7875 16.0341 10.5238 15.952C10.2601 15.87 9.97988 16.0173 9.89786 16.2809L10.8527 16.578ZM12.1527 23.6266C12.0803 23.8931 12.2376 24.1678 12.5041 24.2403C12.7705 24.3127 13.0453 24.1554 13.1177 23.8889L12.1527 23.6266ZM14.341 19.3878C14.4134 19.1213 14.2561 18.8466 13.9897 18.7741C13.7232 18.7017 13.4484 18.859 13.376 19.1255L14.341 19.3878ZM22.4318 12.8253C22.4318 16.3208 19.6119 19.1505 16.1384 19.1505V20.1505C20.1686 20.1505 23.4318 16.8687 23.4318 12.8253H22.4318ZM16.1384 19.1505C12.6649 19.1505 9.84502 16.3208 9.84502 12.8253H8.84502C8.84502 16.8687 12.1082 20.1505 16.1384 20.1505V19.1505ZM9.84502 12.8253C9.84502 9.3297 12.6649 6.5 16.1384 6.5V5.5C12.1082 5.5 8.84502 8.78184 8.84502 12.8253H9.84502ZM16.1384 6.5C19.6119 6.5 22.4318 9.3297 22.4318 12.8253H23.4318C23.4318 8.78184 20.1686 5.5 16.1384 5.5V6.5ZM13.768 12.8254C13.768 12.7787 13.8063 12.7368 13.8585 12.7368V13.7368C14.363 13.7368 14.768 13.3266 14.768 12.8254H13.768ZM13.8585 12.7368C13.9107 12.7368 13.949 12.7787 13.949 12.8254H12.949C12.949 13.3266 13.354 13.7368 13.8585 13.7368V12.7368ZM13.949 12.8254C13.949 12.8721 13.9107 12.914 13.8585 12.914V11.914C13.354 11.914 12.949 12.3243 12.949 12.8254H13.949ZM13.8585 12.914C13.8063 12.914 13.768 12.8721 13.768 12.8254H14.768C14.768 12.3243 14.363 11.914 13.8585 11.914V12.914ZM16.0119 12.8254C16.0119 12.7787 16.0502 12.7368 16.1024 12.7368V13.7368C16.6069 13.7368 17.0119 13.3266 17.0119 12.8254H16.0119ZM16.1024 12.7368C16.1546 12.7368 16.1929 12.7787 16.1929 12.8254H15.1929C15.1929 13.3266 15.5979 13.7368 16.1024 13.7368V12.7368ZM16.1929 12.8254C16.1929 12.8721 16.1546 12.914 16.1024 12.914V11.914C15.5979 11.914 15.1929 12.3243 15.1929 12.8254H16.1929ZM16.1024 12.914C16.0502 12.914 16.0119 12.8721 16.0119 12.8254H17.0119C17.0119 12.3243 16.6069 11.914 16.1024 11.914V12.914ZM18.2558 12.8254C18.2558 12.7787 18.2941 12.7368 18.3463 12.7368V13.7368C18.8508 13.7368 19.2558 13.3266 19.2558 12.8254H18.2558ZM18.3463 12.7368C18.3985 12.7368 18.4368 12.7787 18.4368 12.8254H17.4368C17.4368 13.3266 17.8418 13.7368 18.3463 13.7368V12.7368ZM18.4368 12.8254C18.4368 12.8721 18.3985 12.914 18.3463 12.914V11.914C17.8418 11.914 17.4368 12.3243 17.4368 12.8254H18.4368ZM18.3463 12.914C18.2941 12.914 18.2558 12.8721 18.2558 12.8254H19.2558C19.2558 12.3243 18.8508 11.914 18.3463 11.914V12.914ZM16.116 26.4166L19.8309 23.9514L19.278 23.1182L15.5631 25.5834L16.116 26.4166ZM19.5242 24.0339L23.9697 24.3034L24.0303 23.3052L19.5847 23.0357L19.5242 24.0339ZM24.4719 23.639L22.1214 16.928L21.1776 17.2585L23.5281 23.9696L24.4719 23.639ZM19.9014 23.2864L18.5561 19.3615L17.6102 19.6857L18.9554 23.6106L19.9014 23.2864ZM16.0319 25.5745L12.7219 23.3788L12.1691 24.2121L15.4791 26.4078L16.0319 25.5745ZM12.4153 23.2964L7.96975 23.5659L8.03025 24.5641L12.4758 24.2946L12.4153 23.2964ZM8.47743 24.2135L10.8527 16.578L9.89786 16.2809L7.52257 23.9164L8.47743 24.2135ZM13.1177 23.8889L14.341 19.3878L13.376 19.1255L12.1527 23.6266L13.1177 23.8889Z" fill="black"/>
</svg>

<svg width="32" height="32" viewBox="0 0 32 32" fill="none" xmlns="http://www.w3.org/2000/svg">
  <symbol id="item" viewBox="0 0 32 32"  fill="none">
    <path d="M15.563 25.583a.5.5 0 0 0 .553.834l-.553-.834Zm3.992-2.048.03-.5a.5.5 0 0 0-.307.083l.277.417Zm4.445.27-.03.498a.5.5 0 0 0 .502-.664l-.472.165Zm-1.879-6.877a.5.5 0 1 0-.943.33l.943-.33Zm-3.166 6.683a.5.5 0 1 0 .946-.325l-.946.325Zm-.399-4.25a.5.5 0 1 0-.946.325l.946-.325Zm-3.077 7.047a.5.5 0 1 0 .553-.834l-.553.834Zm-3.034-2.613.277-.416a.5.5 0 0 0-.307-.083l.03.5ZM8 24.066l-.477-.149a.5.5 0 0 0 .507.648L8 24.065Zm2.853-7.487a.5.5 0 0 0-.955-.297l.955.297Zm1.3 7.049a.5.5 0 0 0 .965.262l-.965-.262Zm2.188-4.24a.5.5 0 0 0-.965-.262l.965.263Zm8.09-6.562c0 3.496-2.82 6.326-6.293 6.326v1c4.03 0 7.294-3.282 7.294-7.326h-1Zm-6.293 6.326c-3.473 0-6.293-2.83-6.293-6.326h-1c0 4.044 3.263 7.326 7.293 7.326v-1Zm-6.293-6.326c0-3.495 2.82-6.325 6.293-6.325v-1c-4.03 0-7.293 3.282-7.293 7.325h1ZM16.138 6.5c3.474 0 6.294 2.83 6.294 6.325h1c0-4.043-3.263-7.325-7.294-7.325v1Zm-2.37 6.325a.09.09 0 0 1 .09-.088v1a.91.91 0 0 0 .91-.912h-1Zm.09-.088a.09.09 0 0 1 .091.088h-1a.91.91 0 0 0 .91.912v-1Zm.091.088a.09.09 0 0 1-.09.089v-1a.91.91 0 0 0-.91.911h1Zm-.09.089a.09.09 0 0 1-.091-.089h1a.91.91 0 0 0-.91-.911v1Zm2.153-.089a.09.09 0 0 1 .09-.088v1a.91.91 0 0 0 .91-.912h-1Zm.09-.088a.09.09 0 0 1 .09.088h-1a.91.91 0 0 0 .91.912v-1Zm.09.088a.09.09 0 0 1-.09.089v-1a.91.91 0 0 0-.91.911h1Zm-.09.089a.09.09 0 0 1-.09-.089h1a.91.91 0 0 0-.91-.911v1Zm2.154-.089a.09.09 0 0 1 .09-.088v1a.91.91 0 0 0 .91-.912h-1Zm.09-.088a.09.09 0 0 1 .09.088h-1a.91.91 0 0 0 .91.912v-1Zm.09.088a.09.09 0 0 1-.09.089v-1a.91.91 0 0 0-.91.911h1Zm-.09.089a.09.09 0 0 1-.09-.089h1a.91.91 0 0 0-.91-.911v1Zm-2.23 13.503 3.715-2.466-.553-.833-3.715 2.465.553.834Zm3.408-2.383 4.446.27.06-.999-4.445-.27-.06.999Zm4.948-.395-2.35-6.711-.944.33 2.35 6.712.944-.331Zm-4.57-.353-1.346-3.925-.946.325 1.345 3.925.946-.325Zm-3.87 2.288-3.31-2.195-.553.833 3.31 2.196.553-.834Zm-3.617-2.278-4.445.27.06.998 4.446-.27-.06-.998Zm-3.938.918 2.376-7.636-.955-.297-2.375 7.635.954.297Zm4.64-.325 1.224-4.501-.965-.263-1.223 4.502.965.262Z" fill="currentColor"/>
  </symbol>
</svg>
